X:667
T: MARIA WOLLTE WANDERN GEHN
N: E2058A
O: Europa, Mitteleuropa, Deutschland, Hessen, Hanau; Fulda
R: geistlich, Marien - Lied, Legende
M: 4/4
L: 1/8
K: F
C2 | F2A2G2cB | A3GF2
Ac | B2B2A2cB | G4z2
cB | A2A2GFG2 | A2d2c2
B2 | A2A2GFG2 | F6

@@@ Tune index: 5351
